X:1
T:The Judgment Day
T:The Judgment Day
T:Daniel Brink Towner
T:Oswald Jeffrey Smith, 1916
T:Public Domain Courtesy of the Cyber Hymnal™
T:Public Domain Courtesy of the Cyber Hymnal™
C:Daniel Brink Towner
Z:Public Domain
Z:Courtesy of the Cyber Hymnal™
%%score ( 1 2 ) ( 3 4 )
L:1/8
Q:1/4=96
M:4/4
K:G
V:1 treble 
V:2 treble 
V:3 bass 
V:4 bass 
V:1
 [B,D][B,D] | [DG][DG][DG][DG] [DG]2 [DG][FA] | [GB][GB][GB][GB] [GB]2 [GB][Gc] | %3
w: 1.~Are you|liv- ing for to- day, With the|fu- ture far a- way, Know- ing|
w: 2.~Have you|turned a- way the Light, Sought the|dark- ness and the night? Do you|
w: 3.~Have you|lost the sense of sin, Si- lenced|con- science’s voice with- in, Placed the|
w: 4.~Is it|bet- ter then to sin Than to|have His peace with- in? For the|
 [Gd][Gd][Gd][Gd] [Gd]2 [DB][DG] | [DB][DA][^CA][CE] !fermata![=CA]2 [CD][CD] | %5
w: not that ere the night Death may|come and claim his right? Then, I|
w: tread in er- ror’s way, And a-|void the Sav- ior’s way? Oh, be-|
w: judg- ment far a- way, Fought the|light and shunned the day? You will|
w: Sav- ior came to God, Bend- ing|low be- neath the rod— Died for|
 [B,G][DG][DG][DG] [DG]2 [DG][DA] | [GB][GB][GB][GB] [GB]2 [GB][Gc] | %7
w: bid you stop and think Ere you|reach the aw- ful brink, For ’twill|
w: ware! be- ware, I pray, And the|voice of God o- bey, For to|
w: meet in sin or grace, Meet the|Sav- ior face to face; ’Tis for|
w: guilt- y sin- ners lost, Paid the|debt at fear- ful cost; Oh, then|
 [Gd][Gd][Gd][Gd] [Gd]2 [GB][FA] | [EG][EG][EG][CE] !fermata![B,G]2 ||"^Refrain" DD | %10
w: then be all too late, To a-|void your cer- tain fate!||
w: turn a- way the Light Is to|dwell in end- less night!||
w: you the ques- tion when? You must|meet Him now or then.||
w: come! no long- er wait, Ere for-|ev- er ’tis too late!||
 [DG]<[DG] [DG][DG] [EG]2 [CE]2 | [DG]6 [DG][DG] | [GB]<[GB] [GB][GB] [GB]2 [DG]2 | %13
w: |||
w: |||
w: |||
w: |||
 [GB]6 [GB][GB] | [Gd]>[Gd] [Gd][GB] [Gd]2 [GB][FA] | [EG]>[EG] [EG][CE] [EG]2 [EG][CE] | %16
w: |||
w: |||
w: |||
w: |||
 [B,D]<[B,D] [DG][DG] [DA]2 [DA]2 | [DG]6 |] %18
w: ||
w: ||
w: ||
w: ||
V:2
 x2 | x8 | x8 | x8 | x8 | x8 | x8 | x8 | x6 || DD | x8 | x8 | x8 | x8 | x8 | x8 | x8 | x6 |] %18
V:3
 G,G, | [G,B,][G,B,][G,B,][G,B,] [G,B,]2 [B,,D][D,D] | [G,D][G,D][G,D][G,D] [G,D]2 G,[G,A,] | %3
w: ~ ~|~ ~ ~ ~ ~ ~ ~|~ ~ ~ ~ ~ ~ ~|
 [G,B,][G,B,][G,B,][G,B,] [G,B,]2 G,[B,,G,] | [D,G,][D,F,][E,G,][E,G,] !fermata![D,F,]2 A,A, | %5
w: ~ ~ ~ ~ ~ ~ ~|~ ~ ~ ~ ~ ~ ~|
 [G,B,][G,B,][G,B,][G,B,] [G,B,]2 [G,B,][G,C] | [G,D][G,D][G,D][G,D] [G,D]2 G,[G,A,] | %7
w: ~ ~ ~ ~ ~ ~ ~|~ ~ ~ ~ ~ ~ ~|
 [G,B,][G,B,][G,B,][G,B,] [G,B,]2 [G,D][D,C] | [E,B,][E,B,][C,C][C,G,] !fermata![G,,G,]2 || %9
w: ~ ~ ~ ~ ~ ~ ~|~ ~ ~ ~ ~|
 [G,B,][G,B,] | [G,B,]<[G,B,] [G,B,][G,B,] [C,C]2 [C,G,]2 | [G,,B,]6 [G,B,][G,B,] | %12
w: Are you|rea- dy for the judg- ment|day? Are you|
 [G,D]<[G,D] [G,D][G,D] [D,D]2 [B,,D]2 | [G,,D]6 [G,D][G,D] | %14
w: rea- dy for the judg- ment|day? Have you|
 [G,B,]>[G,B,] [G,B,][G,D] [G,B,]2 [G,D][D,C] | [E,B,]>[E,B,] [C,C][C,G,] [C,C]2 [C,C][C,G,] | %16
w: par- don full and free Through the|Sav- ior slain for thee? Are you|
 [D,G,]<[D,G,] [D,B,][D,B,] [D,B,]2 [D,B,]2 | [G,,B,]6 |] %18
w: rea- dy for the judg- ment|day?|
V:4
 G,G, | x8 | x6 G, x | x6 G, x | x6 A,A, | x8 | x6 G, x | x8 | x6 || x2 | x8 | x8 | x8 | x8 | x8 | %15
 x8 | x8 | x6 |] %18

